public/assets/icons/edit.svg

<svg width="30" height="30" viewBox="0 0 30 30" fill="none" xmlns="http://www.w3.org/2000/svg">
<circle opacity="0.1" cx="15" cy="15" r="15" fill="#3DD9B3"/>
<path fill-rule="evenodd" clip-rule="evenodd" d="M15.8889 9.44466C12.8206 9.44466 10.3333 11.932 10.3333 15.0002C10.3333 15.3684 10.0349 15.6669 9.66667 15.6669C9.29848 15.6669 9 15.3684 9 15.0002C9 11.1956 12.0843 8.11133 15.8889 8.11133C19.6935 8.11133 22.7778 11.1956 22.7778 15.0002C22.7778 16.0556 22.54 17.0572 22.1145 17.9529C21.9565 18.2856 21.5588 18.4271 21.2263 18.269C20.8937 18.1111 20.7522 17.7134 20.9101 17.3808C21.2525 16.6601 21.4444 15.8535 21.4444 15.0002C21.4444 11.932 18.9571 9.44466 15.8889 9.44466V9.44466ZM10.2115 17.636C10.5269 17.4459 10.9366 17.5475 11.1266 17.8629C12.0998 19.478 13.8688 20.5558 15.8889 20.5558C16.7422 20.5558 17.5488 20.3639 18.2695 20.0215C18.4348 19.943 18.5956 19.8565 18.7515 19.7625C19.0669 19.5725 19.4766 19.6741 19.6666 19.9895C19.8567 20.3048 19.7551 20.7145 19.4397 20.9046C19.2464 21.0211 19.0468 21.1284 18.8416 21.2258C17.9459 21.6513 16.9442 21.8891 15.8889 21.8891C13.3822 21.8891 11.1889 20.5498 9.98454 18.5511C9.79452 18.2357 9.89612 17.826 10.2115 17.636V17.636Z" fill="#3DD9B3"/>
<path fill-rule="evenodd" clip-rule="evenodd" d="M15.446 11.668C15.8142 11.668 16.1126 11.9664 16.1126 12.3346V15.2235H19.0015C19.3697 15.2235 19.6682 15.522 19.6682 15.8902C19.6682 16.2584 19.3697 16.5569 19.0015 16.5569H15.446C15.0778 16.5569 14.7793 16.2584 14.7793 15.8902V12.3346C14.7793 11.9664 15.0778 11.668 15.446 11.668V11.668Z" fill="#3DD9B3"/>
<path fill-rule="evenodd" clip-rule="evenodd" d="M7.51959 11.78C7.82595 11.5758 8.23986 11.6586 8.4441 11.9649L9.85207 14.0769L11.964 12.6689C12.2704 12.4647 12.6843 12.5474 12.8885 12.8538C13.0928 13.1601 13.01 13.5741 12.7036 13.7783L10.037 15.5561C9.73062 15.7603 9.31671 15.6775 9.11247 15.3712L7.33469 12.7045C7.13046 12.3982 7.21324 11.9842 7.51959 11.78V11.78Z" fill="#3DD9B3"/>
</svg>

<svg xmlns="http://www.w3.org/2000/svg" width="30" height="30" fill="none"><circle cx="15" cy="15" r="15" fill="#3DD9B3" opacity=".1"/><path fill="#3DD9B3" fill-rule="evenodd" d="M15.889 9.445A5.556 5.556 0 0 0 10.333 15 .667.667 0 1 1 9 15a6.889 6.889 0 1 1 13.115 2.953.666.666 0 1 1-1.205-.572 5.556 5.556 0 0 0-5.021-7.936m-5.677 8.191a.667.667 0 0 1 .915.227 5.55 5.55 0 0 0 4.762 2.693 5.53 5.53 0 0 0 2.863-.794.667.667 0 0 1 .688 1.143 6.85 6.85 0 0 1-3.551.984c-2.507 0-4.7-1.34-5.904-3.338a.667.667 0 0 1 .226-.915" clip-rule="evenodd"/><path fill="#3DD9B3" fill-rule="evenodd" d="M15.446 11.668c.368 0 .667.298.667.667v2.888h2.889a.667.667 0 0 1 0 1.334h-3.556a.667.667 0 0 1-.667-.667v-3.555c0-.369.299-.667.667-.667M7.52 11.78a.667.667 0 0 1 .924.185l1.408 2.112 2.112-1.408a.667.667 0 1 1 .74 1.11l-2.667 1.777a.667.667 0 0 1-.925-.185l-1.777-2.667a.667.667 0 0 1 .185-.924" clip-rule="evenodd"/></svg>
